ix/filter-tick_bold.svg

<svg viewBox="0 0 24 24" fill="none" xmlns="http://www.w3.org/2000/svg" height="1em" width="1em">
  <path d="M17.9209 10.12C17.5909 10.04 17.2409 10 16.8809 10C14.2609 10 12.1309 12.13 12.1309 14.75C12.1309 15.64 12.3809 16.48 12.8209 17.2C13.1909 17.82 13.7009 18.35 14.3209 18.73C15.0609 19.22 15.9409 19.5 16.8809 19.5C18.6209 19.5 20.1309 18.57 20.9509 17.2C21.3909 16.48 21.6309 15.64 21.6309 14.75C21.6309 12.49 20.0509 10.59 17.9209 10.12ZM19.2509 14.13L16.7109 16.47C16.5709 16.6 16.3809 16.67 16.2009 16.67C16.0109 16.67 15.8209 16.6 15.6709 16.45L14.5009 15.28C14.2109 14.99 14.2109 14.51 14.5009 14.22C14.7909 13.93 15.2709 13.93 15.5609 14.22L16.2209 14.88L18.2309 13.03C18.5409 12.75 19.0109 12.77 19.2909 13.07C19.5709 13.38 19.5509 13.85 19.2509 14.13Z" fill="#292D32"/>
  <path d="M20.5799 4.02V6.24C20.5799 7.05 20.0799 8.06 19.5799 8.57L19.3999 8.73C19.2599 8.86 19.0499 8.89 18.8699 8.83C18.6699 8.76 18.4699 8.71 18.2699 8.66C17.8299 8.55 17.3599 8.5 16.8799 8.5C13.4299 8.5 10.6299 11.3 10.6299 14.75C10.6299 15.89 10.9399 17.01 11.5299 17.97C12.0299 18.81 12.7299 19.51 13.4899 19.98C13.7199 20.13 13.8099 20.45 13.6099 20.63C13.5399 20.69 13.4699 20.74 13.3999 20.79L11.9999 21.7C10.6999 22.51 8.90992 21.6 8.90992 19.98V14.63C8.90992 13.92 8.50992 13.01 8.10992 12.51L4.31992 8.47C3.81992 7.96 3.41992 7.05 3.41992 6.45V4.12C3.41992 2.91 4.31992 2 5.40992 2H18.5899C19.6799 2 20.5799 2.91 20.5799 4.02Z" fill="#292D32"/>
</svg>

<svg viewBox="0 0 24 24" fill="none" xmlns="http://www.w3.org/2000/svg" height="1em" width="1em">
  <path d="M17.92 10.12a4.42 4.42 0 0 0-1.04-.12c-2.62 0-4.75 2.13-4.75 4.75 0 .89.25 1.73.69 2.45.37.62.88 1.15 1.5 1.53.74.49 1.62.77 2.56.77 1.74 0 3.25-.93 4.07-2.3.44-.72.68-1.56.68-2.45a4.74 4.74 0 0 0-3.71-4.63Zm1.33 4.01-2.54 2.34c-.14.13-.33.2-.51.2-.19 0-.38-.07-.53-.22l-1.17-1.17a.754.754 0 0 1 0-1.06c.29-.29.77-.29 1.06 0l.66.66 2.01-1.85c.31-.28.78-.26 1.06.04.28.31.26.78-.04 1.06Z" fill="#292D32"/>
  <path d="M20.58 4.02v2.22c0 .81-.5 1.82-1 2.33l-.18.16c-.14.13-.35.16-.53.1-.2-.07-.4-.12-.6-.17-.44-.11-.91-.16-1.39-.16-3.45 0-6.25 2.8-6.25 6.25 0 1.14.31 2.26.9 3.22.5.84 1.2 1.54 1.96 2.01.23.15.32.47.12.65-.07.06-.14.11-.21.16l-1.4.91c-1.3.81-3.09-.1-3.09-1.72v-5.35c0-.71-.4-1.62-.8-2.12L4.32 8.47c-.5-.51-.9-1.42-.9-2.02V4.12c0-1.21.9-2.12 1.99-2.12h13.18c1.09 0 1.99.91 1.99 2.02Z" fill="#292D32"/>
</svg>
